_inc/images/systems/logos/gbh.svg

<svg viewBox="0 0 264 58" xmlns="http://www.w3.org/2000/svg">
    <g fill="#fff">
        <path d="M252.528.423h11.464L247.83 25.352l-2.621 19.45h-10.361l3.036-22.193L227.523.423h11.189l5.527 12.603zM131.793 27.269h13.672l1.383-9.861H133.31l.969-7.124h15.743l1.523-9.86h-26.11L119.22 44.8h25.97l1.383-9.866h-15.749zm-79.571-4.386 3.453-9.176 1.106 9.176h-4.559zm-3.73 8.765h9.393l1.66 13.149h16.99l7.874-24.105 3.87 24.105h8.979l9.946-25.475 1.658 25.475h9.946L116.044.421h-11.88l-9.257 23.42L91.314.42H80.678L68.522 36.853 63.962.42H50.701L35.919 37.263l1.934-14.38h-17.96l-1.245 8.765h7.875l-.553 3.013c-1.382.82-4.558.958-5.802.958S9.67 34.798 10.084 24.936c.41-9.86 13.673-19.037 29.42-13.97l1.522-9.45C30.526-2.044 2.95-.052.134 24.39-1.523 38.77 11.74 45.62 20.58 45.482c5.112.274 10.914-1.644 12.986-2.74l-.69 2.055h10.499l5.111-13.149z"/>
        <path d="M216.333.013c-7.185-.275-17.545 3.834-20.999 20.408-3.453 16.57 5.802 23.282 14.367 24.378 8.566 1.095 20.584-4.246 22.794-20.133C234.707 8.778 226.828.424 216.332.013zm-1.104 9.45c2.9 0 9.117 1.918 7.597 13.421-1.52 11.505-8.702 12.875-11.328 12.601-2.625-.274-8.012-2.054-6.492-12.6 1.522-10.546 7.185-13.559 10.225-13.422z"/>
        <path d="M172.677 17.408h5.803c4.283 0 5.111-2.74 5.248-3.835.139-1.096-1.104-3.288-3.314-3.288h-6.769l-.964 7.123zm-2.486 17.53h7.875c4.282 0 5.248-3.287 5.386-4.383.139-1.095-1.104-3.286-3.314-3.286h-8.841l-1.104 7.669zm-11.6 9.862L164.808.424h19.063c4.56 0 11.19 5.205 10.362 12.19-.829 6.985-3.04 7.396-4.56 8.492 2.35 2.053 4.698 5.34 3.731 11.504-.967 6.164-6.079 12.19-15.058 12.19h-19.753z"/>
    </g>
    <path d="M80.767 57.806H78.16v-2.857h-1.956v2.857h-2.608v-8.078h2.608v2.856h1.956v-2.856h2.607v8.078Zm3.548-1.279-.303 1.279H81.26l2.114-8.078h4.028l2.114 8.078h-2.752l-.298-1.279h-2.151Zm1.146-4.316h-.145l-.535 2.263h1.201l-.521-2.263Zm9.96 3.282.196 2.17c-.546.225-1.232.337-2.058.337-.826 0-1.488-.087-1.989-.258-.499-.173-.894-.444-1.182-.813a3.35 3.35 0 0 1-.601-1.306c-.112-.502-.168-1.119-.168-1.851 0-.733.056-1.35.168-1.851.115-.505.315-.945.601-1.317.556-.714 1.577-1.071 3.064-1.071.332 0 .721.032 1.168.097.447.064.78.145.997.24l-.391 1.976a7.521 7.521 0 0 0-1.551-.181c-.468 0-.794.044-.978.131-.183.085-.274.259-.274.516v3.389c.338.068.681.102 1.029.102.739 0 1.395-.103 1.969-.31Zm3.768-1.205h-.052v3.518H96.53v-8.078h2.607v3.296h.052c.018-.259.061-.465.13-.619l1.28-2.677h2.813l-1.956 3.969 2.021 4.109h-2.812l-1.346-2.895a1.895 1.895 0 0 1-.13-.623Zm4.746 3.375.363-2.132c.801.199 1.521.299 2.161.299.639 0 1.155-.026 1.546-.077v-.647L106.831 55c-1.061-.094-1.789-.343-2.184-.752-.397-.411-.596-1.017-.596-1.82 0-1.103.242-1.861.727-2.277.481-.412 1.299-.618 2.454-.618 1.158 0 2.201.108 3.129.323l-.326 2.069c-.807-.129-1.454-.194-1.942-.194-.487 0-.9.022-1.238.065v.632l.94.092c1.14.112 1.927.38 2.361.809.435.423.652 1.016.652 1.777 0 .542-.074 1.001-.224 1.375-.149.376-.324.661-.526.854-.205.194-.495.342-.87.444-.373.104-.7.168-.983.19-.283.021-.658.031-1.127.031-1.13 0-2.178-.112-3.143-.337Zm12.114-2.958h-2.021v-1.861h2.021v-2.005h1.877v2.005h2.034v1.861h-2.034v2.016h-1.877v-2.016Zm14.64 3.101h-2.608v-2.857h-1.956v2.857h-2.607v-8.078h2.607v2.856h1.956v-2.856h2.608v8.078Zm.912-4.034c0-1.472.278-2.545.833-3.223.556-.678 1.56-1.016 3.013-1.016 1.453 0 2.457.338 3.013 1.016.556.678.834 1.751.834 3.223 0 .732-.06 1.349-.177 1.851a3.4 3.4 0 0 1-.606 1.306c-.285.369-.681.64-1.187.813-.503.171-1.128.258-1.877.258-.748 0-1.373-.087-1.876-.258-.507-.173-.902-.444-1.188-.813a3.414 3.414 0 0 1-.605-1.306c-.118-.502-.177-1.119-.177-1.851Zm2.803-1.344v3.361h1.08c.358 0 .617-.04.778-.12.162-.083.242-.271.242-.563v-3.361h-1.094c-.348 0-.602.039-.764.12-.161.083-.242.27-.242.563Zm8.358 1.464-.158 3.914h-2.724l.493-8.078h3.404l1.02 4.108h.089l1.019-4.108h3.4l.498 8.078h-2.724l-.158-3.914h-.094l-.987 3.914h-1.997l-1.002-3.914h-.079Zm13.233-1.012v1.875h-2.608v.984h3.194v2.067h-5.802v-8.078h5.737l-.326 2.068h-2.803v1.084h2.608Zm6.374 4.926h-4.68v-8.078h4.224c.782 0 1.341.15 1.676.452.335.301.503.741.503 1.32 0 .576-.107 1.02-.321 1.334a1.418 1.418 0 0 1-.852.614v.078c1.052.182 1.578.893 1.578 2.133 0 .646-.174 1.167-.521 1.56-.348.393-.883.587-1.607.587Zm-1.057-3.217h-1.015v1.315h1.006c.363 0 .545-.218.545-.656 0-.44-.179-.659-.536-.659Zm-.196-3.089h-.819v1.2h.81c.329 0 .494-.199.494-.6 0-.4-.161-.6-.485-.6Zm9.992 3.62 1.406 2.686h-2.869l-1.071-2.404h-.558v2.404h-2.608v-8.078h4.107c1.869 0 2.803.942 2.803 2.829 0 1.293-.403 2.148-1.21 2.563Zm-2.492-3.324h-.6v1.615h.6c.314 0 .542-.032.685-.096.142-.065.214-.215.214-.448v-.527c0-.234-.072-.383-.214-.448-.143-.065-.371-.096-.685-.096Zm10.025 1.084v1.875h-2.607v.984h3.194v2.067h-5.802v-8.078h5.737l-.326 2.068h-2.803v1.084h2.607Zm8.396 1.358.628-4.51h2.724l-1.28 8.078h-3.399l-.601-2.972h-.158l-.587 2.972h-3.404l-1.276-8.078h2.724l.615 4.51h.079l.936-4.51h1.998l.922 4.51h.079Z" style="fill:#fff;white-space:pre"/>
</svg>

<?xml version="1.0" encoding="utf-8"?>
<svg id="svg2" version="1.1" enable-background="new 0 0 566.929 98.574" y="0px" x="0px" viewBox="0 0 264 58" xmlns="http://www.w3.org/2000/svg">
  <g id="g4" fill="#fff" transform="matrix(0.465655, 0, 0, 0.461675, -0.001408, -0.000296)">
    <polygon id="_43443024" points="542.31 0.917 566.93 0.917 532.22 54.913 526.59 97.041 504.34 97.041 510.86 48.973 488.61 0.917 512.64 0.917 524.51 28.215"/>
    <polygon id="_43441624" points="283.03 59.066 312.39 59.066 315.36 37.706 286.29 37.706 288.37 22.276 322.18 22.276 325.45 0.917 269.38 0.917 256.03 97.041 311.8 97.041 314.77 75.671 280.95 75.671"/>
    <path id="_43775888" d="m112.15 49.565 7.416-19.874 2.375 19.874h-9.79zm-8.01 18.987h20.172l3.563 28.48h36.488l16.91-52.213 8.309 52.213h19.283l21.359-55.179 3.561 55.179h21.359l-5.934-96.119h-25.514l-19.88 50.727-7.715-50.727h-22.842l-26.105 78.912-9.791-78.912h-28.48l-31.744 79.8 4.154-31.149h-38.571l-2.672 18.987h16.912l-1.188 6.526c-2.967 1.778-9.789 2.076-12.459 2.076s-22.545-1.779-21.656-23.14c0.882-21.358 29.362-41.234 63.181-30.258l3.266-20.47c-22.548-7.712-81.766-3.396-87.815 49.543-3.559 31.149 24.921 45.983 43.906 45.688 10.977 0.594 23.438-3.561 27.887-5.935l-1.482 4.451h22.547l10.977-28.48z"/>
    <path id="_44102912" d="m464.58 0.028c-15.428-0.594-37.678 8.306-45.094 44.204-7.416 35.894 12.459 50.431 30.852 52.804 18.396 2.373 44.205-9.196 48.951-43.609 4.75-34.414-12.17-52.508-34.71-53.399zm-2.37 20.47c6.229 0 19.578 4.154 16.314 29.071-3.262 24.92-18.688 27.887-24.326 27.293-5.637-0.594-17.207-4.448-13.943-27.293 3.27-22.841 15.43-29.368 21.96-29.071z"/>
    <path id="_44104296" d="m370.83 37.706h12.461c9.197 0 10.977-5.934 11.271-8.305 0.297-2.375-2.371-7.122-7.117-7.122h-14.537l-2.07 15.427zm-5.34 37.971h16.912c9.195 0 11.271-7.119 11.566-9.493 0.299-2.373-2.371-7.118-7.117-7.118h-18.986l-2.37 16.611zm-24.91 21.361 13.35-96.118h40.938c9.793 0 24.031 11.274 22.252 26.403-1.779 15.13-6.527 16.02-9.791 18.393 5.045 4.447 10.088 11.568 8.012 24.918-2.078 13.352-13.055 26.403-32.338 26.403l-42.42 0.001z"/>
  </g>
  <path d="M 80.767 57.806 L 78.16 57.806 L 78.16 54.949 L 76.204 54.949 L 76.204 57.806 L 73.596 57.806 L 73.596 49.728 L 76.204 49.728 L 76.204 52.584 L 78.16 52.584 L 78.16 49.728 L 80.767 49.728 L 80.767 57.806 Z M 84.315 56.527 L 84.012 57.806 L 81.26 57.806 L 83.374 49.728 L 87.402 49.728 L 89.516 57.806 L 86.764 57.806 L 86.466 56.527 L 84.315 56.527 Z M 85.461 52.211 L 85.316 52.211 L 84.781 54.474 L 85.982 54.474 L 85.461 52.211 Z M 95.421 55.493 L 95.617 57.663 C 95.071 57.888 94.385 58 93.559 58 C 92.733 58 92.071 57.913 91.57 57.742 C 91.071 57.569 90.676 57.298 90.388 56.929 C 90.102 56.557 89.902 56.121 89.787 55.623 C 89.675 55.121 89.619 54.504 89.619 53.772 C 89.619 53.039 89.675 52.422 89.787 51.921 C 89.902 51.416 90.102 50.976 90.388 50.604 C 90.944 49.89 91.965 49.533 93.452 49.533 C 93.784 49.533 94.173 49.565 94.62 49.63 C 95.067 49.694 95.4 49.775 95.617 49.87 L 95.226 51.846 C 94.661 51.726 94.144 51.665 93.675 51.665 C 93.207 51.665 92.881 51.709 92.697 51.796 C 92.514 51.881 92.423 52.055 92.423 52.312 L 92.423 55.701 C 92.761 55.769 93.104 55.803 93.452 55.803 C 94.191 55.803 94.847 55.7 95.421 55.493 Z M 99.189 54.288 L 99.137 54.288 L 99.137 57.806 L 96.53 57.806 L 96.53 49.728 L 99.137 49.728 L 99.137 53.024 L 99.189 53.024 C 99.207 52.765 99.25 52.559 99.319 52.405 L 100.599 49.728 L 103.412 49.728 L 101.456 53.697 L 103.477 57.806 L 100.665 57.806 L 99.319 54.911 C 99.25 54.755 99.207 54.547 99.189 54.288 Z M 103.935 57.663 L 104.298 55.531 C 105.099 55.73 105.819 55.83 106.459 55.83 C 107.098 55.83 107.614 55.804 108.005 55.753 L 108.005 55.106 L 106.831 55 C 105.77 54.906 105.042 54.657 104.647 54.248 C 104.25 53.837 104.051 53.231 104.051 52.428 C 104.051 51.325 104.293 50.567 104.778 50.151 C 105.259 49.739 106.077 49.533 107.232 49.533 C 108.39 49.533 109.433 49.641 110.361 49.856 L 110.035 51.925 C 109.228 51.796 108.581 51.731 108.093 51.731 C 107.606 51.731 107.193 51.753 106.855 51.796 L 106.855 52.428 L 107.795 52.52 C 108.935 52.632 109.722 52.9 110.156 53.329 C 110.591 53.752 110.808 54.345 110.808 55.106 C 110.808 55.648 110.734 56.107 110.584 56.481 C 110.435 56.857 110.26 57.142 110.058 57.335 C 109.853 57.529 109.563 57.677 109.188 57.779 C 108.815 57.883 108.488 57.947 108.205 57.969 C 107.922 57.99 107.547 58 107.078 58 C 105.948 58 104.9 57.888 103.935 57.663 Z M 116.049 54.705 L 114.028 54.705 L 114.028 52.844 L 116.049 52.844 L 116.049 50.839 L 117.926 50.839 L 117.926 52.844 L 119.96 52.844 L 119.96 54.705 L 117.926 54.705 L 117.926 56.721 L 116.049 56.721 L 116.049 54.705 Z M 130.689 57.806 L 128.081 57.806 L 128.081 54.949 L 126.125 54.949 L 126.125 57.806 L 123.518 57.806 L 123.518 49.728 L 126.125 49.728 L 126.125 52.584 L 128.081 52.584 L 128.081 49.728 L 130.689 49.728 L 130.689 57.806 Z M 131.601 53.772 C 131.601 52.3 131.879 51.227 132.434 50.549 C 132.99 49.871 133.994 49.533 135.447 49.533 C 136.9 49.533 137.904 49.871 138.46 50.549 C 139.016 51.227 139.294 52.3 139.294 53.772 C 139.294 54.504 139.234 55.121 139.117 55.623 C 138.999 56.121 138.797 56.557 138.511 56.929 C 138.226 57.298 137.83 57.569 137.324 57.742 C 136.821 57.913 136.196 58 135.447 58 C 134.699 58 134.074 57.913 133.571 57.742 C 133.064 57.569 132.669 57.298 132.383 56.929 C 132.098 56.557 131.896 56.121 131.778 55.623 C 131.66 55.121 131.601 54.504 131.601 53.772 Z M 134.404 52.428 L 134.404 55.789 L 135.484 55.789 C 135.842 55.789 136.101 55.749 136.262 55.669 C 136.424 55.586 136.504 55.398 136.504 55.106 L 136.504 51.745 L 135.41 51.745 C 135.062 51.745 134.808 51.784 134.646 51.865 C 134.485 51.948 134.404 52.135 134.404 52.428 Z M 142.762 53.892 L 142.604 57.806 L 139.88 57.806 L 140.373 49.728 L 143.777 49.728 L 144.797 53.836 L 144.886 53.836 L 145.905 49.728 L 149.305 49.728 L 149.803 57.806 L 147.079 57.806 L 146.921 53.892 L 146.827 53.892 L 145.84 57.806 L 143.843 57.806 L 142.841 53.892 L 142.762 53.892 Z M 155.995 52.88 L 155.995 54.755 L 153.387 54.755 L 153.387 55.739 L 156.581 55.739 L 156.581 57.806 L 150.779 57.806 L 150.779 49.728 L 156.516 49.728 L 156.19 51.796 L 153.387 51.796 L 153.387 52.88 L 155.995 52.88 Z M 162.369 57.806 L 157.689 57.806 L 157.689 49.728 L 161.913 49.728 C 162.695 49.728 163.254 49.878 163.589 50.18 C 163.924 50.481 164.092 50.921 164.092 51.5 C 164.092 52.076 163.985 52.52 163.771 52.834 C 163.56 53.152 163.276 53.356 162.919 53.448 L 162.919 53.526 C 163.971 53.708 164.497 54.419 164.497 55.659 C 164.497 56.305 164.323 56.826 163.976 57.219 C 163.628 57.612 163.093 57.806 162.369 57.806 Z M 161.312 54.589 L 160.297 54.589 L 160.297 55.904 L 161.303 55.904 C 161.666 55.904 161.848 55.686 161.848 55.248 C 161.848 54.808 161.669 54.589 161.312 54.589 Z M 161.116 51.5 L 160.297 51.5 L 160.297 52.7 L 161.107 52.7 C 161.436 52.7 161.601 52.501 161.601 52.1 C 161.601 51.7 161.44 51.5 161.116 51.5 Z M 171.108 55.12 L 172.514 57.806 L 169.645 57.806 L 168.574 55.402 L 168.016 55.402 L 168.016 57.806 L 165.408 57.806 L 165.408 49.728 L 169.515 49.728 C 171.384 49.728 172.318 50.67 172.318 52.557 C 172.318 53.85 171.915 54.705 171.108 55.12 Z M 168.616 51.796 L 168.016 51.796 L 168.016 53.411 L 168.616 53.411 C 168.93 53.411 169.158 53.379 169.301 53.315 C 169.443 53.25 169.515 53.1 169.515 52.867 L 169.515 52.34 C 169.515 52.106 169.443 51.957 169.301 51.892 C 169.158 51.827 168.93 51.796 168.616 51.796 Z M 178.641 52.88 L 178.641 54.755 L 176.034 54.755 L 176.034 55.739 L 179.228 55.739 L 179.228 57.806 L 173.426 57.806 L 173.426 49.728 L 179.163 49.728 L 178.837 51.796 L 176.034 51.796 L 176.034 52.88 L 178.641 52.88 Z M 187.037 54.238 L 187.665 49.728 L 190.389 49.728 L 189.109 57.806 L 185.71 57.806 L 185.109 54.834 L 184.951 54.834 L 184.364 57.806 L 180.96 57.806 L 179.684 49.728 L 182.408 49.728 L 183.023 54.238 L 183.102 54.238 L 184.038 49.728 L 186.036 49.728 L 186.958 54.238 L 187.037 54.238 Z" style="fill: rgb(255, 255, 255); white-space: pre;"/>
</svg>
